docs/.gitbook/assets/icon-phone-16@dark.svg

<svg width="32" height="32" viewBox="0 0 16 16" fill="none" xmlns="http://www.w3.org/2000/svg">
<rect x="0" y="0" width="16" height="16" fill="#181c1f"/>
<path fill-rule="evenodd" clip-rule="evenodd" d="M2.63207 2.56225C2.60569 2.59086 2.59249 2.62488 2.5994 2.67327C2.79805 4.06454 3.36642 6.65646 4.94124 8.95067C6.49421 11.213 9.03823 13.2108 13.2937 13.4713C13.3853 13.4769 13.4999 13.3989 13.4999 13.25V11.0868L11.8812 9.6479L10.6247 10.2762C9.56595 10.8055 8.28728 10.598 7.45029 9.76102L6.2389 8.54964C5.40191 7.71265 5.19441 6.43398 5.72377 5.37526L6.35202 4.11876L4.91313 2.5H2.79073C2.71469 2.5 2.66156 2.53027 2.63207 2.56225ZM1.11446 2.8853C0.963181 1.82581 1.81348 1 2.79073 1H5.24993C5.46415 1 5.66816 1.09161 5.81048 1.25173L7.81048 3.50173C8.01423 3.73094 8.0579 4.06111 7.92075 4.33541L7.06541 6.04608C6.82479 6.52731 6.91911 7.10853 7.29956 7.48898L8.51095 8.70036C8.8914 9.08081 9.47261 9.17513 9.95385 8.93451L11.6645 8.07918C11.9388 7.94203 12.269 7.9857 12.4982 8.18944L14.7482 10.1894C14.9083 10.3318 14.9999 10.5358 14.9999 10.75V13.25C14.9999 14.2057 14.213 15.0304 13.2021 14.9685C8.43332 14.6766 5.48796 12.3976 3.70457 9.79957C1.94303 7.23335 1.32804 4.38117 1.11446 2.8853Z" fill="#fff"/>
</svg>

<svg xmlns="http://www.w3.org/2000/svg" width="32" height="32" fill="none" viewBox="0 0 16 16"><path fill="#181c1f" d="M0 0h16v16H0z"/><path fill="#fff" fill-rule="evenodd" d="M2.632 2.562a.13.13 0 0 0-.033.111c.199 1.392.767 3.983 2.342 6.278 1.553 2.262 4.097 4.26 8.353 4.52.091.006.206-.072.206-.221v-2.163l-1.619-1.44-1.256.63A2.75 2.75 0 0 1 7.45 9.76L6.24 8.55a2.75 2.75 0 0 1-.515-3.175l.628-1.256L4.913 2.5H2.791c-.076 0-.13.03-.159.062m-1.518.323C.964 1.825 1.814 1 2.791 1H5.25a.75.75 0 0 1 .56.252l2 2.25a.75.75 0 0 1 .11.833l-.855 1.711A1.25 1.25 0 0 0 7.3 7.49L8.51 8.7c.381.38.963.475 1.444.235l1.71-.856a.75.75 0 0 1 .834.11l2.25 2a.75.75 0 0 1 .252.561v2.5c0 .956-.787 1.78-1.798 1.719-4.769-.292-7.714-2.571-9.497-5.17-1.762-2.566-2.377-5.418-2.59-6.914" clip-rule="evenodd"/></svg>
